material/.icons/material/gesture-tap-button.svg

<svg xmlns="http://www.w3.org/2000/svg" viewBox="0 0 24 24"><path d="M13 5c2.21 0 4 1.79 4 4 0 1.5-.8 2.77-2 3.46v-1.22c.61-.55 1-1.35 1-2.24 0-1.66-1.34-3-3-3s-3 1.34-3 3c0 .89.39 1.69 1 2.24v1.22C9.8 11.77 9 10.5 9 9c0-2.21 1.79-4 4-4m7 15.5c-.03.82-.68 1.47-1.5 1.5H13c-.38 0-.74-.15-1-.43l-4-4.2.74-.77c.19-.21.46-.32.76-.32h.2L12 18V9c0-.55.45-1 1-1s1 .45 1 1v4.47l1.21.13 3.94 2.19c.53.24.85.77.85 1.35v3.36M20 2H4c-1.1 0-2 .9-2 2v8a2 2 0 002 2h4v-2H4V4h16v8h-2v2h2v-.04l.04.04c1.09 0 1.96-.91 1.96-2V4a2 2 0 00-2-2z"/></svg>

<?xml version="1.0" encoding="UTF-8"?><!DOCTYPE svg PUBLIC "-//W3C//DTD SVG 1.1//EN" "http://www.w3.org/Graphics/SVG/1.1/DTD/svg11.dtd"><svg xmlns="http://www.w3.org/2000/svg" xmlns:xlink="http://www.w3.org/1999/xlink" version="1.1" id="mdi-gesture-tap-button" width="24" height="24" viewBox="0 0 24 24"><path d="M13 5C15.21 5 17 6.79 17 9C17 10.5 16.2 11.77 15 12.46V11.24C15.61 10.69 16 9.89 16 9C16 7.34 14.66 6 13 6S10 7.34 10 9C10 9.89 10.39 10.69 11 11.24V12.46C9.8 11.77 9 10.5 9 9C9 6.79 10.79 5 13 5M20 20.5C19.97 21.32 19.32 21.97 18.5 22H13C12.62 22 12.26 21.85 12 21.57L8 17.37L8.74 16.6C8.93 16.39 9.2 16.28 9.5 16.28H9.7L12 18V9C12 8.45 12.45 8 13 8S14 8.45 14 9V13.47L15.21 13.6L19.15 15.79C19.68 16.03 20 16.56 20 17.14V20.5M20 2H4C2.9 2 2 2.9 2 4V12C2 13.11 2.9 14 4 14H8V12L4 12L4 4H20L20 12H18V14H20V13.96L20.04 14C21.13 14 22 13.09 22 12V4C22 2.9 21.11 2 20 2Z" /></svg>
